X:1
T:Psalm 120
T:V 3
L:1/4
M:14/4
I:linebreak $
K:Bb
V:1 treble nm="Pipe Organ" snm="Org."
V:1
 G2 A B2 A G F =E2 D3 z |$ D2 F G A B A G ^F2 G3 z |$ D2 =E2 F F G A B2 G3 z |$ %3
w: Py- le y- lings af- ge- vlo- ë|van die sta- al- sterk hel- de- bo- ë|met 'n do- de- l- i- ke sprong,|
 d2 c2 B A G A B2 A3 z |$ B2 c d2 c B A G2 F3 z |$ D2 F G A2 G2 G ^F G4 |] %6
w: saam met vuur- straal uit die ros- se|ko- le- gloed van be- sem- bos- se-|dis jo- u loon, o val- se tong!|

